projects/js-packages/social-logos/src/svg/mastodon.svg

<svg enable-background="new 0 0 24 24" viewBox="0 0 24 24" xmlns="http://www.w3.org/2000/svg"><path d="m11.972656 2.3515625c-2.4679973.021-4.8416105.2868756-6.2246091.921875 0 0-2.7421875 1.2280667-2.7421875 5.4140625 0 .958999-.0182812 2.105314.0117187 3.320312.0999999 4.093996.7501601 8.127908 4.5351563 9.128907 1.7449982.461999 3.2441726.56014 4.4511716.49414 2.188998-.122 3.416016-.78125 3.416016-.78125l-.072266-1.58789s-1.564314.49164-3.320312.43164c-1.739999-.06-3.5754224-.188221-3.8574221-2.324218-.026-.188-.0390625-.386657-.0390625-.597657 0 0 1.708049.415625 3.8730466.515625 1.323999.06 2.56322-.076562 3.824219-.226562 2.417998-.289 4.524063-1.779626 4.789063-3.140625.416999-2.143998.380859-5.232422.380859-5.232422 0-4.1859958-2.740235-5.4140625-2.740235-5.4140625-1.382998-.6349994-3.759564-.900875-6.226562-.921875zm-2.7929685 3.2695313c1.0279985 0 1.8043595.3955476 2.3183595 1.1855468l.501953.8398438.5-.8398438c.513999-.7899992 1.292314-1.1855469 2.320312-1.1855468.888 0 1.604392.3128756 2.150391.921875.53.6089993.792969 1.433751.792969 2.46875v5.0683592h-2.007813v-4.9199218c0-1.0369989-.437547-1.5624999-1.310547-1.5625-.964999 0-1.447265.6224232-1.447265 1.8574219v2.6933599h-1.996094v-2.6933599c0-1.2349987-.48422-1.8574218-1.4492186-1.8574219-.8729992 0-1.3085938.5255011-1.3085938 1.5625v4.9199218h-2.0078125v-5.0683592c0-1.034999.2629693-1.8597507.7929688-2.46875.5469994-.6089994 1.2623915-.921875 2.1503906-.921875z"/></svg>

<?xml version="1.0" encoding="UTF-8"?>
<svg version="1.1" xmlns="http://www.w3.org/2000/svg" xmlns:xlink="http://www.w3.org/1999/xlink" x="0px" y="0px"
	 viewBox="0 0 24 24" style="enable-background:new 0 0 24 24;" xml:space="preserve"><g id="mastodon">
	<path id="path2" style="display:inline;fill:#000000" d="M 11.972656 2.3515625 C 9.5046587 2.3725625 7.1310455 2.6384381 5.7480469 3.2734375 C 5.7480469 3.2734375 3.0058594 4.5015042 3.0058594 8.6875 C 3.0058594 9.646499 2.9875782 10.792814 3.0175781 12.007812 C 3.117578 16.101808 3.7677382 20.13572 7.5527344 21.136719 C 9.2977326 21.598718 10.796907 21.696859 12.003906 21.630859 C 14.192904 21.508859 15.419922 20.849609 15.419922 20.849609 L 15.347656 19.261719 C 15.347656 19.261719 13.783342 19.753359 12.027344 19.693359 C 10.287345 19.633359 8.4519216 19.505138 8.1699219 17.369141 C 8.1439219 17.181141 8.1308594 16.982484 8.1308594 16.771484 C 8.1308594 16.771484 9.8389084 17.187109 12.003906 17.287109 C 13.327905 17.347109 14.567126 17.210547 15.828125 17.060547 C 18.246123 16.771547 20.352188 15.280921 20.617188 13.919922 C 21.034187 11.775924 20.998047 8.6875 20.998047 8.6875 C 20.998047 4.5015042 18.257812 3.2734375 18.257812 3.2734375 C 16.874814 2.6384381 14.498248 2.3725625 12.03125 2.3515625 L 11.972656 2.3515625 z M 9.1796875 5.6210938 C 10.207686 5.6210938 10.984047 6.0166414 11.498047 6.8066406 L 12 7.6464844 L 12.5 6.8066406 C 13.013999 6.0166414 13.792314 5.6210937 14.820312 5.6210938 C 15.708312 5.6210938 16.424704 5.9339694 16.970703 6.5429688 C 17.500703 7.1519681 17.763672 7.9767198 17.763672 9.0117188 L 17.763672 14.080078 L 15.755859 14.080078 L 15.755859 9.1601562 C 15.755859 8.1231573 15.318312 7.5976563 14.445312 7.5976562 C 13.480313 7.5976562 12.998047 8.2200794 12.998047 9.4550781 L 12.998047 12.148438 L 11.001953 12.148438 L 11.001953 9.4550781 C 11.001953 8.2200794 10.517733 7.5976563 9.5527344 7.5976562 C 8.6797352 7.5976562 8.2441406 8.1231573 8.2441406 9.1601562 L 8.2441406 14.080078 L 6.2363281 14.080078 L 6.2363281 9.0117188 C 6.2363281 7.9767198 6.4992974 7.1519681 7.0292969 6.5429688 C 7.5762963 5.9339694 8.2916884 5.6210938 9.1796875 5.6210938 z " />
</g>
</svg>
